X:1
T:Over the Top
T:Tom Brier https://musescore.com/user/32597310/scores/5869869 Transcribed from: Album: "Constellations", Track 1: "Over the Top" 
T:Over the Top
C:Tom Brier
%%score { ( 1 3 ) | 2 }
L:1/8
M:2/4
K:F
V:1 treble nm="P1"
V:3 treble 
V:2 bass 
V:1
 z (3(f/a/c'/ |[Q:1/4=103]"^Swing 16ths."!f! [ff']/)a/c'/[ff']/- [ff']/[ee']/[dd'] | %2
 [cc'][cbc']!8va(! [c'b'c'']!8va)! z/ A/ | [Ff]/A/c/[Ff]/- [Ff]/[Ee]/[Dd] | %4
 [CEc][CBc]!8va(! [cbc']!8va)! z/ ^G/ |: A<[Fc]- [Fc]>^G | A<[^Fcd]- [Fcd]>^A | %7
 =B/[FGBd]^A/ B/[FGBd][GBg]/- | [GBg]/[A=Bf]g/ [GBe]/g/[FBd]/E/- | %9
 [Ed]/[EGBc][EGBc]/- [EGBc]/C/D/^D/ | E/F/^F/G/ [Bd]/[Ec]A/ | [Fd]/c/A/[F_Adf]/- [FAdf]/e/d/e/ | %12
 d/[EGBc][EGBc]/- [EGBc]/C/E/^G/ | A<[Fc]- [Fc]>^G | A<[^Fcd]- [Fcd]>[F^A] | %15
 [G=B]/[FGBd][^F^A]/ [GB]/[=FGBd][G_ABg]/- | [GABg][F_A=Bf] [EABe][DABd] | %17
 [DFAd]/[CFAc][CFAc]/- [CFAc]/C/D/^D/ | E/[Bd]/c/C/- [CEA]/[B,EG][A,CF]/- | %19
 [A,CF]/(f/[Ac]/)(f/ [_A_c]/)(f/[GB]/)(f/ |1 [FA]/)C/D/^D/ E/F/G/^G/ :|2 %21
 [FA][=B=b]/[ceg_bc']/- [cegbc']/[^c^c']/[dd']/[ee']/ |: .[ff']f- f2- | %23
 [FAcf]/[Ff]/[Gg]/[Afa]/- [Afa]/[Bb]/[cc']/[^c^c']/ | .[dd']d- d2- | %25
 [DGBd]/[DBd]/[Ee]/[FBf]/- [FBf]/[Ee]/[Dd]/[^D^d]/ | [Ee]{=d^d}[ea]{=d^d} [ea]<[cg] | %27
{d^d} [ea]/[cg][cegc']/- [cegc']/[Beg]a/ | [Acf]{=G^G}[Ad]{=G^G} [Ad]<[Fc] | %29
{c^c} [dg]<[=cf]{=c'^c'} d'<[ebc'] |{c'd'e'} .f'f- f>f- | %31
 [FAcf]/[Ff]/[Gg]/[Afa]/- [Afa]/[Bb]/[cc']/[^c^c']/ | .[dd']d- d>d- | %33
 [DGBd]/[DBd]/[Ee]/[FBf]/- [FBf]/[Ee]/[Dd]/[^D^d]/ | [Ee]{=d^d}[ea]{=d^d} [ea]<[cg] | %35
{d^d} [ea]/[cg][cegc']/- [cegc']/[Beg]a/ | [Acf]{=G^G}[Ad]{=GA} [Bd]/[Ec][FAcf]/- |1 %37
 [FAcf]/[cc']/[=B=b]/[cegc']/- [cegc']/[^c^c']/[dd']/[ee']/ :|2 [FAcf]/d/c/[GB]/- [GB]/A/G/^G/ || %39
 A<[CFAc]- [CFAc]>^G | A<[C^FAd]- [CFAd]>[F^A] | [G=B]/[FGBd][^F^A]/ [GB]/[=FGBd][GBg]/- | %42
 [GBg]/[A=Bf][GBe]/- [GBe]/[FBd]G/- | [EGBd]/[EGBc][EGBc]/- [EGBc]/C/D/^D/ | %44
 E/F/^F/G/ [Bd]/[EGc]A/ | [Fd]/c/A/[F_Adf]/- f/e/d/e/ | d/[EBc][EBc]/- [EBc]/C/E/^G/ | %47
!f! A<[CFAc]- [CFAc]>^G | A<[C^FAd]- [CFAd]>[F^A] | [G=B]/[FGBd][^F^A]/ [GB]/[=FGBd][_ABdg]/- | %50
 [ABdg][F_A=Bf] [EABe]/[DABd]D/- | [DFAd]/[CFAc][CFAc]/- [CFAc]/C/D/D/ | %52
 E/[Bd]/c/C/- [CEA]/[B,EG][A,CF]/- | [A,CF]/(f/[Ac]/)(f/ [_A_c]/)(f/[GB]/)(f/ | %54
 [FA]) z [CFAc][^C^c] |:!mf! [DGBd][B,E]- [B,E]/[^C^c]/[DGBd]/[Cc]/ | %56
 [DGBd]/[EGBe][DGBd]/- [DGBd]/[CGBc][^C^c]/ | [DFAd][CF]- [CF]/[^C^c]/[Dd]/[Ee]/ | %58
 [GAcg]/[Ff][DFAd]/- [DFAd]/[^C^c][DGBd]/- | [DGBd]/[^DA]/[EG]/C/ d/[EBc]a/ | %60
 [Beg]d'/[ebc']/- [ebc']/[Gg]/[^G^g]/[Aa]/- | [Aa][gg'] [fbd'f'][dfbd'] | %62
 [cfac']/[Aa][CFAc]/- [CFAc][^CF_A=B^c] |!f! [DGBd][B,E]- [B,E]/[^C^c]/[DGBd]/[Cc]/ | %64
 [DGBd]/[EGBe][DGBd]/- [DGBd]/[CGBc][^C^c]/ | [DFAd][CF]- [CF]/[^C^c]/[Dd]/[Ee]/ | %66
 [Gc_eg]/[Ff][_EAce]/- [EAce]/[FAcf][Bd_a]/- | [Bda]/f/g/[=Bd_a]/- [Bda]/f/g/[Acf=a]/- | %68
 [Acfa]/c/^c/[A=cd]/- [Acd]/[Ac^fa][=Bd]/- | [Bd]/[=Bfa][_Be]/- [Be]/[Bcg][Acf]/- |1 %70
 [Acf] (3C/F/A/ [CFc]/A/[^C^c] :|2 [Acf]!mp! z [C_EF]2 |:!mf! [DFBd]>[FBdf]- [FBdf]2 | %73
 [DFBd]>[GBdg]- [GBdg]/[Ff]/[Gg]/[^G^g]/ | [^G^g]/[Aa][Acf]/- [Acf]2 | %75
 [Ace]/f[Acd]/- [Acd][_A_cf] | [GBe]/g[GBd]/- [GBd][GBe]/g/- | g/[GBd]/e B/[Ed]c/ | x f- f2- | %79
 [FAcf]/[Ff]/[Gg]/[Acfa]/- [Acfa]/[Bb]/[cc']/[^c^c']/ | [dfbd']>[FBdf]- [FBdf]2 | %81
 [_dfb_d']>[GBdg]- [GBdg]/[Ff]/[Gg]/[^G^g]/ | [^G^g]/[Aa][Acf]/- [Acf]2 | %83
 [Ace]/f[Acd]/- [Acd][_A_cf] | [GBe]/g[GBd]/- [GBd][GBe]/g/- | g/[GBd]/e B/[Ed]c/ | %86
 f/g/[_ea]/[dg]/- [dg]/f/[^Gd] |1 [Acf] (3F/A/c/ f/[_e'f']B/ :|2 %88
 [Acf][=B=b]/[ce_bc']/- [cebc']/[^c^c']/[dd']/[ee']/ ||!f! [ff']/a/c'/[ff']/- [ff']/[ee']/[dd'] | %90
 [cc']/!8va(! c'/[b'c'']/!8va)! z/ c/[bc']c/ | [Ff]/A/c/[Ff]/- [Ff]/[Ee]/[Dd] | %92
 [CEc][=B=b]/[cc']/- [cc']/[^c^c']/[dd']/[ee']/ |: !>![ff']f- f2- | %94
 [FAcf]/[Ff]/[Gg]/[Afa]/- [Afa]/[Bb]/[cc']/[^c^c']/ | !>![dd']d- d2- | %96
 [DGBd]/[^C^c][Dd]/ [FBf]/[Ee]/[Dd]/[^D^d]/ | [EBe]{=d^d}[ea]{=d^d} [ea]<[cg] | %98
{d^d} [ea]/[cg][cegc']/- [cegc']/[Beg]a/ | [Acf]{=G^G}[Ad]{=G^G} [Ad]<[Fc] | %100
{c^c} [dg]<[=cf]{=c'^c'} d'<[ebc'] |{c'd'e'} !>!f'f- f>f- | %102
 [FAcf]/[Ff]/[Gg]/[Acfa]/- [Acfa]/[Bb]/[cc']/[^c^c']/ | !>![dd']d- d2- | %104
 [DGBd]/[^C^c]/[Dd]/[FBf]/- [FBf]/[Ee]/[Dd]/[^D^d]/ | [EBe]{=d^d}[ea]{=d^d} [ea]<[cg] | %106
{d^d} [ea]/[cg][cegc']/- [cegc']/[Beg]a/ | [Acf]{=G^G}[Ad]{=GA} [Bd]/[Ec][FAcf]/- |1 %108
 [FAcf]/[=B=b]/ z/ [cegc']/- [cegc']/[^c^c']/[dd']/[ee']/ :|2 %109
 [FAcf]/[^gd']/[ac']/f/ f'!mf! (3F/G/^G/ || A/[Fc]^G/ A/[Fc]^c/ | d/[Bf]^c/ d/[Bf]g/ | %112
!<(! a/d'/c'/a/ g/f/d/c/!<)! |!f! [E^G]/[EA][CF]/- [CF].[fac'f'] |] %114
V:2
 z2 | x4 | z3 C | [A,C]>[_A,_C]- [A,C]2 | [G,B,]2 [G,B,CE][C,,C,] |: %5
 .[F,,F,].[F,A,C] [E,,E,].[_E,,_E,] | [D,,D,].[D,^F,A,C] [E,,E,].[^F,,F,] | %7
 [G,,G,].[D,F,G,=B,] [G,,,G,,].[D,F,G,B,]/D,,/- | %8
 [D,,=B,,F,].[D,F,G,=B,]/G,,/- [G,,G,]/G,,/-[G,,F,]/G,,/- | [G,,E,].[E,G,B,C] [C,,C,].[E,G,B,C] | %10
 [G,,G,].[E,G,B,C] [G,,G,][^G,,^G,] | [A,,A,].[F,A,C] [_A,,_A,].[F,A,D] | %12
 [G,,G,].[E,G,B,C] [E,G,B,C][C,,C,] | .[F,,F,].[F,A,C] [E,,E,].[_E,,_E,] | %14
 [D,,D,].[D,^F,A,C] [E,,E,].[^F,,F,] | [G,,D,G,].[D,F,G,=B,] [G,,,G,,].[D,F,G,B,] | %16
 [=B,,,=B,,].[D,F,_A,=B,] [B,,,B,,].[D,F,A,B,] | [C,,C,].[C,F,A,] [F,,C,F,][A,,A,]/[_A,,_A,]/ | %18
 .[G,,G,].[C,E,B,] [C,,C,].[C,E,B,] | [F,,,F,,][F,_E] [F,D][F,_D] |1 %20
 [F,C] z/ [C,E,B,]/- [C,E,B,][C,,C,] :|2 [F,C]2 [G,B,CE][C,,C,] |: [F,,,F,,][_E,_E] [D,D][_D,_D] | %23
 [C,C][B,,B,] [A,,A,]/[G,,G,]/[F,,F,]/[E,,E,]/ | [D,,D,][C,C] [B,,B,][A,,A,] | %25
 [G,,G,][D,,D,] [B,,,B,,][G,,,G,,]/C,,/- | [C,,G,,E,].[G,B,CE] G,,,.[G,B,CE]/C,,/- | %27
 [C,,G,,E,].[G,B,CE] C,,.[G,B,CE]/F,,/- | [F,,C,A,].[A,CF] C,,.[F,A,C] | %29
 [F,,C,F,][^F,,^D,] [G,,E,][C,,C,] | [F,,,F,,][_E,_E] [D,D][_D,_D] | %31
 [C,C][B,,B,] [A,,A,]/[G,,G,]/[F,,F,] | [D,,D,][C,C] [B,,B,][A,,A,] | %33
 [G,,G,][D,,D,] [B,,,B,,][G,,,G,,]/C,,/- | [C,,G,,E,].[G,B,CE] G,,,.[G,B,CE]/C,,/- | %35
 [C,,G,,E,].[G,B,CE] C,,.[G,B,CE]/F,,/- | [F,,C,A,].[A,CF] [G,,G,][C,,C,] |1 %37
 [F,,F,]/ z [G,B,CE]/- [G,B,CE][C,,C,] :|2 [F,,F,]>[G,B,CE]- [G,B,CE][C,,C,] || %39
 [F,,,F,,][F,,C,F,] [E,,=B,,E,][_E,,_B,,_E,] | [D,,A,,D,].[D,^F,A,C] [E,,=B,,E,].[^F,,^C,F,] | %41
 [G,,D,G,].[D,F,G,=B,] [G,,,G,,].[D,F,G,B,]/D,,/- | %42
 [D,,=B,,F,].[D,F,G,=B,] [G,,F,].[D,F,G,B,]/G,,/- | [G,,E,].[E,G,B,C] [C,,C,].[C,E,B,] | %44
 [G,,G,].[E,G,B,C] [G,,G,][^G,,^G,] | [A,,A,].[F,A,C] [_A,,_A,].[F,A,D] | %46
 [G,,G,][E,G,B,] [E,G,B,C][E,,E,] | [F,,,F,,][F,,C,F,] [E,,=B,,E,][_E,,_B,,_E,] | %48
 [D,,A,,D,][_D,,_A,,_D,] [C,,G,,C,][A,,,=A,,]/[_A,,,_A,,]/ | %49
 [G,,,G,,].[D,F,G,=B,] [G,,,D,,G,,].[D,F,G,B,] | [=B,,,=B,,][B,,,B,,] [D,F,_A,=B,][D,F,A,B,] | %51
 [C,,C,].[C,F,A,] [F,,F,]/[A,,A,][_A,,_A,]/ | [G,,G,].[E,G,B,C] [C,,C,].[E,G,B,C] | %53
 [F,,,F,,][F,_E] [F,D][F,_D] | [F,C] z [A,,A,][_A,,_A,] |: [G,,G,].[C,E,G,] [C,,C,].[C,E,B,] | %56
 [G,,G,].[C,E,B,] [C,,C,].[C,E,B,] | [F,,F,].[C,F,A,] [C,,C,].[C,F,A,] | %58
 [F,,F,].[C,F,A,] [A,,A,][_A,,_A,] | [G,,G,].[C,E,B,] [C,,C,].[E,G,B,C] | %60
 [G,,G,].[G,B,CE] [C,,C,].[G,B,CE] | [F,,F,][_E,_E] [D,D][B,,B,] | %62
 [A,,F,A,][F,,F,] [A,,,A,,][_A,,,_A,,] | [G,,,G,,].[C,E,G,] [C,,C,].[C,E,G,B,] | %64
 [G,,G,].[C,E,G,B,] [C,,C,].[C,E,G,B,] | [F,,F,].[C,F,A,] [C,,C,].[C,F,A,] | %66
 [F,,,F,,].[C,F,A,] [C,,C,].[F,,C,F,] | [B,,,B,,].[F,_A,B,D] [=B,,,=B,,].[F,A,=B,D] | %68
 [C,,C,].[A,CF] [D,,D,].[^F,A,CD] | [G,,,G,,].[G,=B,DF] [C,,C,].[G,_B,CE] |1 %70
 [F,,F,] z/ [A,,F,A,]/- [A,,F,A,][_A,,_A,] :|2 [F,,C,F,] z [F,A,]>B,,,- |: %72
 [B,,,F,,D,].[F,B,D] F,,,.[F,B,D] | [B,,,B,,].[F,B,D] [B,,,B,,][D,,D,]/[_D,,_D,]/ | %74
 [C,,C,].[A,CF] [F,,F,].[A,CF] | [A,,F,].[A,CF] [A,,F,].[_A,,F,] | [G,,E,].[G,B,CE] C,,.[G,B,CE] | %77
 [G,,E,].[G,B,CE] C,,.[G,B,CE] | [F,,F,][_E,_E] [D,D][_D,_D] | [C,C][B,,B,] [A,,A,][F,,F,] | %80
 [B,,,B,,].[F,B,D] F,,,.[F,B,D] | B,,,.[F,B,_D] [B,,,B,,].[F,B,D]/F,,/- | %82
 [F,,C,A,].[A,CF] [C,,C,].[A,CF]/F,,/- | [F,,C,A,].[A,CF]/A,,/- [A,,C]/_A,,/-.[A,,_C]/G,,/- | %84
 [G,,B,].[G,B,CE] C,,.[G,B,CE] | [G,,E,G,].[G,B,CE] [C,,C,].[G,B,CE] | %86
 [F,,F,][F,_E] [F,D][F,=B,] |1 [F,C][_E,,_E,] [D,,D,][C,,C,] :|2 %88
 [F,C] z/ [G,B,CE]/- [G,B,CE][C,C] || z4 | z4 | [A,C]>[_A,_C]- [A,C]2 | %92
 [G,B,]>[G,B,CE]- [G,B,CE][C,,C,] |: [F,,F,][_E,_E] [D,D][_D,_D] | %94
 [C,C][B,,B,]/[A,,A,]/- [A,,A,]/[G,,G,]/[F,,F,]/[E,,E,]/ | [D,,D,][C,C] [B,,B,][A,,A,] | %96
 [G,,G,][D,,D,]/[B,,,B,,]/- [B,,,B,,]/[A,,,A,,]/[G,,,G,,]/C,,/- | %97
 [C,,G,,E,].[G,B,CE] G,,,.[G,B,CE] | [C,,G,,C,].[G,B,CE] C,,.[G,B,CE]/F,,/- | %99
 [F,,C,A,].[A,CF] [C,,C,].[A,CF] | [F,,F,][^F,,^D,] [G,,E,][C,,C,] | %101
 !>![F,,,F,,][_E,_E] [D,D][_D,_D] | [C,C][B,,B,] [A,,A,]/[G,,G,]/[F,,F,]/[_E,,_E,]/ | %103
 !>![D,,D,][C,C] [B,,B,][A,,A,] | [G,,G,][D,,D,] [B,,,B,,]/[A,,,A,,]/[G,,,G,,]/C,,/- | %105
 [C,,G,,E,].[G,B,CE] [C,,C,].[G,B,CE] | [G,,E,G,].[G,B,CE] [C,,C,].[G,B,CE]/F,,/- | %107
 [F,,C,A,].[A,CF] [G,,G,][C,,C,] |1 [F,,F,] z/ [G,B,CE]/- [G,B,CE] [C,,C,] :|2 %109
 [F,,F,][C,,C,] [F,,,F,,]2 || [F,A,C]2 [_E,A,C]2 | [F,B,D]2 [B,,F,B,]2 | .[C,F,A,] z z2 | %113
 [C,,C,][C,,C,] [F,,C,F,].[F,,,F,,] |] %114
V:3
 x2 | [Ac]>[_A_c]- [Ac]2 | [GB]3 x | x4 | x2!8va(! x!8va)! x |: x4 | x4 | x4 | x4 | x4 | x4 | x4 | %12
 x4 | x4 | x4 | x4 | x4 | x4 | x4 | x4 |1 x4 :|2 x4 |: z [FA_e] [FBd][FB_d] | x4 | %24
 z [D^F] [DG][DFA] | x4 | x4 | x4 | x4 | x4 | z [FA_e] [FBd]/[FB_d][FAc]/- | x4 | %32
 z [D^F] [DG]/[DFA][DGB]/- | x4 | x4 | x4 | x4 |1 x4 :|2 x4 || x4 | x4 | x4 | x4 | x4 | x4 | %45
 x2 [FAd]2 | x4 | x4 | x4 | x4 | x4 | x4 | x4 | x4 | x4 |: x4 | x4 | x4 | x4 | x4 | x4 | x4 | x4 | %63
 x4 | x4 | x4 | x4 | x4 | x4 | x4 |1 x4 :|2 x4 |: x2 z/ (f/[_e'f']) | x4 | x4 | x4 | x4 | x4 | %78
 [Ff][FA_e] [FBd][FB_d] | x4 | x4 | x4 | x4 | x4 | x4 | x4 | x4 |1 x4 :|2 x4 || %89
 [Ac]>[_A_c]- [Ac]2 | [GB]>c- cC | x4 | x4 |: z [FA_e] [FBd]/[FB_d][FAc]/- | x4 | %95
 z [D^F] [DG]/[DFA][DGB]/- | x4 | x4 | x4 | x4 | x4 | z [FA_e] [FBd]/[FB_d][FAc]/- | x4 | %103
 z [D^F] [DG]/[DFA][DGB]/- | x4 | x4 | x4 | x4 |1 x4 :|2 x4 || x4 | x4 | x4 | x4 |] %114

